X: 3
T: The Peacock's Feathers
R: hornpipe
M: 4/4
L: 1/8
K: Dmaj
|:AG|FEDF A2AB|defd B2ef|gefd edBd|AGFD E2EG|
FEDF A2AB|defd B2ef|gefd edBd|Adfe d2:|
|:fg|afge fdec|defd B2ef|gefd edBd|AGFD E2EG|
FEDF A2AB|defd B2ef|gefd edBd|Adfe d2:|


Tune 665	Setting 13704

